src/images/github-dark.svg

<?xml version="1.0" encoding="UTF-8" standalone="no"?>
<svg width="62px" height="60px" viewBox="0 0 62 60" version="1.1" xmlns="http://www.w3.org/2000/svg" xmlns:xlink="http://www.w3.org/1999/xlink" xmlns:sketch="http://www.bohemiancoding.com/sketch/ns">
    <!-- Generator: Sketch 3.3.1 (12002) - http://www.bohemiancoding.com/sketch -->
    <title>Fill 4 Copy 2</title>
    <desc>Created with Sketch.</desc>
    <defs>
        <linearGradient x1="52.4667263%" y1="0%" x2="52.4667263%" y2="115.189024%" id="linearGradient-1">
            <stop stop-color="#9C9C9C" offset="0%"></stop>
            <stop stop-color="#B5B5B5" offset="100%"></stop>
        </linearGradient>
    </defs>
    <g id="Page-1" stroke="none" stroke-width="1" fill="none" fill-rule="evenodd" sketch:type="MSPage">
        <g id="developers-copy-17" sketch:type="MSArtboardGroup" transform="translate(-689.000000, -117.000000)" fill="url(#linearGradient-1)">
            <path d="M720.000253,117.259734 C703.120112,117.259734 689.432047,130.945268 689.432047,147.82794 C689.432047,161.333774 698.190768,172.792042 710.336452,176.834023 C711.864154,177.116987 712.42502,176.170905 712.42502,175.363522 C712.42502,174.634598 712.396672,172.226621 712.383511,169.672352 C703.879407,171.521489 702.08494,166.065701 702.08494,166.065701 C700.694417,162.532448 698.690891,161.592947 698.690891,161.592947 C695.917439,159.695721 698.89995,159.734699 698.89995,159.734699 C701.969527,159.950338 703.585813,162.884761 703.585813,162.884761 C706.312188,167.557969 710.736854,166.20693 712.481207,165.425868 C712.755566,163.450182 713.547764,162.101674 714.421965,161.33833 C707.632349,160.565367 700.494976,157.944281 700.494976,146.231396 C700.494976,142.894041 701.689094,140.167159 703.644532,138.026453 C703.327146,137.256528 702.280838,134.147468 703.940657,129.936924 C703.940657,129.936924 706.50758,129.115367 712.34909,133.070281 C714.78744,132.39299 717.402452,132.053332 720.000253,132.04169 C722.598055,132.053332 725.215091,132.39299 727.657997,133.070281 C733.49242,129.115367 736.0558,129.936924 736.0558,129.936924 C737.719669,134.147468 736.672854,137.256528 736.355468,138.026453 C738.315462,140.167159 739.501481,142.894041 739.501481,146.231396 C739.501481,157.972122 732.35044,160.557268 725.543613,161.314032 C726.640035,162.262645 727.616995,164.122918 727.616995,166.97483 C727.616995,171.064899 727.581561,174.356696 727.581561,175.363522 C727.581561,176.17698 728.131797,177.130148 729.681265,176.829974 C741.820368,172.783437 750.567953,161.329218 750.567953,147.82794 C750.567953,130.945268 736.881913,117.259734 720.000253,117.259734" id="Fill-4-Copy-2" sketch:type="MSShapeGroup"></path>
        </g>
    </g>
</svg>

<svg width="62" height="60" viewBox="0 0 62 60" xmlns="http://www.w3.org/2000/svg"><title>Fill 4 Copy 2</title><defs><linearGradient x1="52.467%" y1="0%" x2="52.467%" y2="115.189%" id="a"><stop stop-color="#9C9C9C" offset="0%"/><stop stop-color="#B5B5B5" offset="100%"/></linearGradient></defs><path d="M720 117.26c-16.88 0-30.568 13.685-30.568 30.568 0 13.506 8.76 24.964 20.904 29.006 1.528.283 2.09-.663 2.09-1.47 0-.73-.03-3.137-.042-5.692-8.505 1.85-10.3-3.606-10.3-3.606-1.39-3.534-3.393-4.473-3.393-4.473-2.773-1.897.21-1.858.21-1.858 3.07.215 4.686 3.15 4.686 3.15 2.726 4.673 7.15 3.322 8.895 2.54.276-1.975 1.068-3.323 1.942-4.087-6.79-.773-13.927-3.394-13.927-15.107 0-3.336 1.194-6.063 3.15-8.204-.318-.77-1.364-3.88.296-8.09 0 0 2.568-.82 8.41 3.134 2.437-.677 5.052-1.017 7.65-1.028 2.598.01 5.215.35 7.658 1.028 5.834-3.955 8.398-3.133 8.398-3.133 1.664 4.21.617 7.32.3 8.09 1.96 2.14 3.145 4.867 3.145 8.204 0 11.742-7.15 14.327-13.956 15.084 1.096.95 2.073 2.81 2.073 5.66 0 4.09-.035 7.383-.035 8.39 0 .813.55 1.766 2.1 1.466 12.138-4.047 20.886-15.5 20.886-29.002 0-16.883-13.686-30.568-30.568-30.568" transform="translate(-689 -117)" fill="url(#a)" fill-rule="evenodd"/></svg>
